X: 26422
T: Merry Reapers, The
R: hornpipe
M: 4/4
K: Dmajor
dAFA defe|dAFAd2ef|(3gfe fd efed|(3cde cBA2fe|
dAFA defd|efgf edcA|afge dcAG|Addcd2z2:|
Adcd BAFE|DEFGA2Bc|dA (3BcB ABAF|AGFD E2FG|
AB (3cde dcBA|BAdF EGFE|FAGE DCA,G,|A,DDCD2z2:|

